papirus/48x48/apps/preferences-desktop-theme.svg

<svg height="48" viewBox="0 0 48.000001 48.000001" width="48" xmlns="http://www.w3.org/2000/svg"><path d="m6 6c-1.108 0-2 .892-2 2v2 28h40v-28-2c0-1.108-.892-2-2-2z" fill="#4ab3e4"/><path d="m6 42c-1.108 0-2-.892-2-2v-2h40v2c0 1.108-.892 2-2 2z" fill="#4d4d4d"/><path d="m6 6c-1.108 0-2 .892-2 2v1c0-1.108.892-2 2-2h36c1.108 0 2 .892 2 2v-1c0-1.108-.892-2-2-2z" fill="#fff" opacity=".1"/><rect height="12" opacity=".2" rx="1" width="16" x="16" y="19"/><path d="m16 20v9c0 .554.446 1 1 1h14c .554 0 1-.446 1-1v-9z" fill="#fff"/><path d="m17 18h14c .554 0 1 .446 1 1v1h-16v-1c0-.554.446-1 1-1z" fill="#4d4d4d"/><g opacity=".2" transform="translate(2 -1002.3622)"><rect height="4" opacity="1" rx=".5" width="4" x="5" y="1012.3622"/><rect height="4" opacity="1" rx=".5" width="4" x="5" y="1018.3622"/><rect height="4" opacity="1" rx=".5" width="4" x="5" y="1024.3622"/><rect height="4" opacity="1" rx=".5" width="4" x="5" y="1030.3622"/></g><rect fill="#fff" height="4" rx=".5" width="4" x="7" y="9.0000172"/><rect fill="#fff" height="4" rx=".5" width="4" x="7" y="15.000017"/><rect fill="#fff" height="4" rx=".5" width="4" x="7" y="21.000017"/><rect fill="#fff" height="4" rx=".5" width="4" x="7" y="27.000017"/><path d="m4 39v1c0 1.108.892 2 2 2h36c1.108 0 2-.892 2-2v-1c0 1.108-.892 2-2 2h-36c-1.108 0-2-.892-2-2z" opacity=".3"/></svg>

<?xml version="1.0" encoding="UTF-8" standalone="no"?>
<svg
   xmlns:dc="http://purl.org/dc/elements/1.1/"
   xmlns:cc="http://creativecommons.org/ns#"
   xmlns:rdf="http://www.w3.org/1999/02/22-rdf-syntax-ns#"
   xmlns:svg="http://www.w3.org/2000/svg"
   xmlns="http://www.w3.org/2000/svg"
   viewBox="0 0 48.000001 48.000001"
   version="1.1"
   width="48"
   height="48"
   id="svg4468">
  <defs
     id="defs4470" />
  <metadata
     id="metadata4473">
    <rdf:RDF>
      <cc:Work
         rdf:about="">
        <dc:format>image/svg+xml</dc:format>
        <dc:type
           rdf:resource="http://purl.org/dc/dcmitype/StillImage" />
        <dc:title></dc:title>
      </cc:Work>
    </rdf:RDF>
  </metadata>
  <path
     id="rect4203"
     d="M 6 6 C 4.892 6 4 6.892 4 8 L 4 10 L 4 38 L 44 38 L 44 10 L 44 8 C 44 6.892 43.108 6 42 6 L 6 6 z "
     style="fill:#4ab3e4" />
  <path
     style="fill:#4d4d4d"
     id="rect3328"
     d="M 6,42 C 4.892,42 4,41.108 4,40 l 0,-2 40,0 0,2 c 0,1.108 -0.892,2 -2,2 z" />
  <path
     style="opacity:0.1;fill:#ffffff"
     id="path3345"
     d="M 6,6 C 4.892,6 4,6.892 4,8 L 4,9 C 4,7.892 4.892,7 6,7 l 36,0 c 1.108,0 2,0.892 2,2 L 44,8 C 44,6.892 43.108,6 42,6 Z" />
  <rect
     style="opacity:0.2;fill:#000000;fill-opacity:1;stroke:none;stroke-width:4;stroke-linecap:round;stroke-linejoin:round;stroke-miterlimit:4;stroke-dasharray:none;stroke-opacity:1"
     id="rect4229"
     width="16"
     height="12"
     x="16"
     y="19"
     ry="1"
     rx="1" />
  <path
     style="opacity:1;fill:#ffffff;fill-opacity:1;stroke:none;stroke-width:4;stroke-linecap:round;stroke-linejoin:round;stroke-miterlimit:4;stroke-dasharray:none;stroke-opacity:1"
     d="M 16 20 L 16 29 C 16 29.554 16.446 30 17 30 L 31 30 C 31.554 30 32 29.554 32 29 L 32 20 L 16 20 z "
     id="rect4152" />
  <path
     id="rect4154"
     d="m 17,18 14,0 c 0.554,0 1,0.446 1,1 l 0,1 -16,0 0,-1 c 0,-0.554 0.446,-1 1,-1 z"
     style="opacity:1;fill:#4d4d4d;fill-opacity:1;stroke:none;stroke-width:4;stroke-linecap:round;stroke-linejoin:round;stroke-miterlimit:4;stroke-dasharray:none;stroke-opacity:1" />
  <g
     id="g4219"
     transform="translate(2,-1002.3622)"
     style="opacity:0.2;fill:#000000;fill-opacity:1">
    <rect
       rx="0.5"
       ry="0.5"
       y="1012.3622"
       x="5"
       height="4"
       width="4"
       id="rect4221"
       style="opacity:1;fill:#000000;fill-opacity:1;stroke-width:1;stroke-miterlimit:4;stroke-dasharray:none" />
    <rect
       style="opacity:1;fill:#000000;fill-opacity:1;stroke-width:1;stroke-miterlimit:4;stroke-dasharray:none"
       id="rect4223"
       width="4"
       height="4"
       x="5"
       y="1018.3622"
       ry="0.5"
       rx="0.5" />
    <rect
       rx="0.5"
       ry="0.5"
       y="1024.3622"
       x="5"
       height="4"
       width="4"
       id="rect4225"
       style="opacity:1;fill:#000000;fill-opacity:1;stroke-width:1;stroke-miterlimit:4;stroke-dasharray:none" />
    <rect
       style="opacity:1;fill:#000000;fill-opacity:1;stroke-width:1;stroke-miterlimit:4;stroke-dasharray:none"
       id="rect4227"
       width="4"
       height="4"
       x="5"
       y="1030.3622"
       ry="0.5"
       rx="0.5" />
  </g>
  <rect
     rx="0.5"
     ry="0.5"
     y="9.0000172"
     x="7"
     height="4"
     width="4"
     id="rect4139"
     style="opacity:1;fill:#ffffff;fill-opacity:1;stroke-width:1;stroke-miterlimit:4;stroke-dasharray:none" />
  <rect
     style="opacity:1;fill:#ffffff;fill-opacity:1;stroke-width:1;stroke-miterlimit:4;stroke-dasharray:none"
     id="rect4141"
     width="4"
     height="4"
     x="7"
     y="15.000017"
     ry="0.5"
     rx="0.5" />
  <rect
     rx="0.5"
     ry="0.5"
     y="21.000017"
     x="7"
     height="4"
     width="4"
     id="rect4143"
     style="opacity:1;fill:#ffffff;fill-opacity:1;stroke-width:1;stroke-miterlimit:4;stroke-dasharray:none" />
  <rect
     style="opacity:1;fill:#ffffff;fill-opacity:1;stroke-width:1;stroke-miterlimit:4;stroke-dasharray:none"
     id="rect4145"
     width="4"
     height="4"
     x="7"
     y="27.000017"
     ry="0.5"
     rx="0.5" />
  <path
     id="path4155"
     d="M 4 39 L 4 40 C 4 41.108 4.892 42 6 42 L 42 42 C 43.108 42 44 41.108 44 40 L 44 39 C 44 40.108 43.108 41 42 41 L 6 41 C 4.892 41 4 40.108 4 39 z "
     style="fill:#000000;fill-opacity:1;opacity:0.3" />
</svg>
